X:1
T:Title
%%score ( 1 2 ) { 3 | ( 4 5 ) }
L:1/8
Q:1/4=115
M:4/4
K:Eb
V:1 treble nm="Grand Piano, Unnamed-000"
V:2 treble 
V:3 bass nm="Choir Pad, St. Edith (St. Hilda)"
V:4 bass 
V:5 bass 
V:1
 [B,E]2 [B,E]2 DE [DF]2 | [DF]2 [DF]2 E4 | [B,G]2 [EG]2 FG [EA]2 | [CF]2 [B,D]6 | %4
w: By~Justin~H.~Knecht,~1799,~~&~Edward~Husband,~1871 * * * *||||
 [B,E]2 [B,E]2 B,-[B,E] [EG]2 | [EB]2 [EB]4 [EA]2 | [EG]2 [CF]2 GA G2- | GF E6 | %8
w: ||||
 [EB]2 [Ge]2- [Ge][Gd] [Gc]2 | G2 [GB]4 [FA]2 | [EG]2 [EF]2 e-[Fe] [Ge]2 | [Fd][Ec] [DB]6 | %12
w: ||||
 [EG]2 [EG]2 FG E2 | GB [EB]4 [EA]2 | [EG]2 [CF]2 [CE]2 [B,D]2 | .E2 z2 z4 | z8 |] %17
w: |||||
V:2
 z4 B,2 z2 | x8 | z4 E2 z2 | x8 | z4 .D2 z2 | x8 | z4 C2 D2 | D2 z2 z4 | x8 | x8 | z4 .E2 z2 | x8 | %12
 z4 E2 z2 | E2 z2 z4 | x8 | B,-[B,F] [B,E]6- | [B,E]2 z2 z4 |] %17
V:3
 G,2 G,2 F,G, A,2 | A,2 A,2 G,4 | E2 D2 _D2 C2 | A,2[K:bass] F,6 | G,2 G,2 F,G, B,2 | _D2 D4 C2 | %6
 B,2 A,2[K:bass] G,F, B,2- | B, z G,6 | G,2 G,2- G,=B,[K:treble] C2 | C2 C4 C2 | %10
 B,2[K:bass] =A,2 B,2 A,2 | =A,2 B,6 | B,2 B,2 A,B, G,2 | B,[K:treble]_D D4 C2 | %14
 B,2 A,2[K:bass] G,2 F,2 | G,A, G,6- | G,2 z2 z4 |] %17
V:4
 E,2 E,2 E,2 E,2 | E,2 E,2 E,4 | E,2 E,2 E,2 A,,2 | A,,2 B,,6 | E,2 E,2 E,2 E,2 | E,2 G,4 A,2 | %6
 E,2 A,,2 A,,2 B,,2 | z A, E,6 | E,2 C,2- C,D, E,2 | E,2 F,4 F,2 | F,2 F,2 G,2 F,2 | F,2 B,,6 | %12
 E,2 E,2 E,2 E,2 | E,2 A,4 A,2 | E,2 A,,2 A,,2 B,,2 | B,,2 E,6- | E,2 z2 z4 |] %17
V:5
 x8 | x8 | x8 | x8 | x8 | x8 | x8 | B,,2 z2 z4 | x8 | x8 | x8 | x8 | x8 | x8 | x8 | x8 | x8 |] %17

